svgs/thin/sink.svg

<svg xmlns="http://www.w3.org/2000/svg" viewBox="0 0 512 512"><!-- Font Awesome Pro 6.0.0-alpha2 by @fontawesome - https://fontawesome.com License - https://fontawesome.com/license (Commercial License) --><path d="M480 288H384V264C384 250.781 394.781 240 408 240H472C476.406 240 480 236.406 480 232S476.406 224 472 224H408C385.938 224 368 241.938 368 264V288H264V72C264 41.125 289.125 16 320 16S376 41.125 376 72V120C376 124.406 379.594 128 384 128S392 124.406 392 120V72C392 32.312 359.688 0 320 0S248 32.312 248 72V288H144V264C144 241.938 126.062 224 104 224H40C35.594 224 32 227.594 32 232S35.594 240 40 240H104C117.219 240 128 250.781 128 264V288H32C14.328 288 0 302.326 0 320C0 337.672 14.328 352 32 352H480C497.674 352 512 337.672 512 320C512 302.326 497.674 288 480 288ZM480 336H32C23.178 336 16 328.822 16 320S23.178 304 32 304H480C488.822 304 496 311.178 496 320S488.822 336 480 336ZM472 376C467.594 376 464 379.594 464 384V408C464 456.531 424.531 496 376 496H136C87.469 496 48 456.531 48 408V384C48 379.594 44.406 376 40 376S32 379.594 32 384V408C32 465.344 78.656 512 136 512H376C433.344 512 480 465.344 480 408V384C480 379.594 476.406 376 472 376Z"/></svg>

<svg xmlns="http://www.w3.org/2000/svg" viewBox="0 0 512 512"><!--! Font Awesome Pro 6.3.0 by @fontawesome - https://fontawesome.com License - https://fontawesome.com/license (Commercial License) Copyright 2023 Fonticons, Inc. --><path d="M480 288h-96V264c0-13.22 10.78-24 24-24h64C476.4 240 480 236.4 480 232S476.4 224 472 224h-64c-22.06 0-40 17.94-40 40V288h-104V72c0-30.88 25.12-56 56-56s56 25.12 56 56v48c0 4.406 3.594 7.1 8 7.1S392 124.4 392 120v-48C392 32.31 359.7 0 320 0S248 32.31 248 72V288H144V264C144 241.9 126.1 224 104 224h-64C35.59 224 32 227.6 32 231.1S35.59 240 40 240h64C117.2 240 128 250.8 128 264V288H32c-17.67 0-32 14.33-32 32c0 17.67 14.33 32 32 32h448c17.67 0 32-14.33 32-32C512 302.3 497.7 288 480 288zM480 336H32c-8.822 0-16-7.178-16-16S23.18 304 32 304h448c8.822 0 16 7.178 16 16S488.8 336 480 336zM472 376c-4.406 0-8 3.594-8 8v24c0 48.53-39.47 88-88 88h-240c-48.53 0-88-39.47-88-88V384c0-4.406-3.594-8-8-8S32 379.6 32 384V408C32 465.3 78.66 512 136 512h240c57.34 0 104-46.66 104-104v-23.1C480 379.6 476.4 376 472 376z"/></svg>
